elements/app-hax/lib/assets/images/DisabledCircle.svg

<svg width="15" height="15" viewBox="0 0 15 15" fill="none" xmlns="http://www.w3.org/2000/svg">
<rect width="15" height="15" fill="white"/>
<path fill-rule="evenodd" clip-rule="evenodd" d="M13.5 3.5V5.5H12.5V3.5H13.5ZM11.5 2.5V3.5H12.5V2.5H11.5ZM9.5 1.5V2.5H11.5V1.5H9.5ZM5.5 1.5H9.5V0.5H5.5V1.5ZM3.5 2.5H5.5V1.5H3.5V2.5ZM2.5 3.5V5.5H1.5V3.5H2.5ZM1.5 9.5V5.5H0.5V9.5H1.5ZM2.5 11.5V9.5H1.5V11.5H2.5ZM3.5 12.5V11.5H2.5V12.5H3.5ZM5.5 13.5V12.5H3.5V13.5H5.5ZM9.5 13.5H5.5V14.5H9.5V13.5ZM2.5 3.5H3.5V2.5H2.5V3.5Z" fill="black"/>
<path d="M9.5 12.5V13.5H11.5V12.5H9.5Z" fill="black"/>
<path d="M11.5 11.5V12.5H12.5V11.5H11.5Z" fill="black"/>
<path d="M12.5 11.5H13.5V9.5H12.5V11.5Z" fill="black"/>
<path d="M13.5 9.5H14.5V5.5H13.5V9.5Z" fill="black"/>
<path d="M1.5 9.5V5.5H2.5V3.5H3.5V2.5H5.5V1.5H9.5V2.5H11.5V3.5H12.5V5.5H13.5V9.5H12.5V11.5H11.5V12.5H9.5V13.5H5.5V12.5H3.5V11.5H2.5V9.5H1.5Z" fill="#C1C1C1"/>
<path d="M3.5 11.5H2.5V10.5H4.5V11.5H10V10.5H11.5V9.5H12.5V8H13.5V9.5H12.5V11.5H11.5V12.5H9.5V13.5H5.5V12.5H3.5V11.5Z" fill="#ACACAC"/>
<path d="M1.5 5.5H2.5V3.5H3.5V2.5H5.5V1.5H6.5V2.5H5.5V3.5H3.5V5.5H2.5V6.5H1.5V5.5Z" fill="#E4E4E4"/>
</svg>

<svg xmlns="http://www.w3.org/2000/svg" fill="none" width="15" height="15" viewBox="0 0 15 15"><path d="M0 0h15v15H0z" fill="#fff"/><path d="M13.5 3.5v2h-1v-2h1Zm-2-1v1h1v-1h-1Zm-2-1v1h2v-1h-2Zm-4 0h4v-1h-4v1Zm-2 1h2v-1h-2v1Zm-1 1v2h-1v-2h1Zm-1 6v-4h-1v4h1Zm1 2v-2h-1v2h1Zm1 1v-1h-1v1h1Zm2 1v-1h-2v1h2Zm4 0h-4v1h4v-1Zm-7-10h1v-1h-1v1Z" fill="#000" fill-rule="evenodd" clip-rule="evenodd"/><path d="M9.5 12.5v1h2v-1h-2Zm2-1v1h1v-1h-1Zm1 0h1v-2h-1v2Zm1-2h1v-4h-1v4Z" fill="#000"/><path d="M1.5 9.5v-4h1v-2h1v-1h2v-1h4v1h2v1h1v2h1v4h-1v2h-1v1h-2v1h-4v-1h-2v-1h-1v-2h-1Z" fill="#C1C1C1"/><path d="M3.5 11.5h-1v-1h2v1H10v-1h1.5v-1h1V8h1v1.5h-1v2h-1v1h-2v1h-4v-1h-2v-1Z" fill="#ACACAC"/><path d="M1.5 5.5h1v-2h1v-1h2v-1h1v1h-1v1h-2v2h-1v1h-1v-1Z" fill="#E4E4E4"/></svg>
